images/computer.svg

<svg width="101" height="100" fill="none" xmlns="http://www.w3.org/2000/svg"><path d="m23.494 54.555-.145-30.459c-.033-1.471 1.491-2.036 2.963-2.035L75.594 22c1.472.001 1.735 1.332 1.77 2.803l.318 29.949c.035 1.472-1.094 2.119-2.566 2.128l-48.897.322a2.716 2.716 0 0 1-2.725-2.647Zm39.739 16.783 20.44-.098-5.036-12.19c-.488-1.18-1.92-2.125-3.197-2.11l-49.801.354c-1.28.014-2.755.967-3.294 2.127L16.64 71.56l19.603.073" stroke="#fff" stroke-width="2" stroke-miterlimit="10" stroke-linecap="round" stroke-linejoin="round"/><path d="M16.645 71.638s-1.38 5.425 4.373 5.245c1.002-.031 6.732.231 13.154.192 0 0 6.866-.126 17.839-.177 10.972-.051 27.489 0 27.489 0s4.449-.088 4.21-5.485" stroke="#fff" stroke-width="2" stroke-miterlimit="10" stroke-linecap="round" stroke-linejoin="round"/><path d="m36.433 71.717 2.162 1.236c.788.45 2.162.806 3.069.796l17.27-.19c.908-.01 2.172-.529 2.825-1.159l1.05-1.016m-20.192-3.511 13.768-.114m-17.526.023-3.555.05m29.639-.269-3.555.05m-5.102-3.493-3.555.05m3.651-3.72-3.555.05m-4.734-.107-3.555.05m3.398 3.689-3.555.05m-4.734-.106-3.555.05m3.796-3.836-3.554.05m28.902 3.606-3.554.051m2.973-3.383-3.555.05m13.361 6.826-3.555.051m2.693-3.803-3.555.051m2.313-3.567-3.555.05m-38.719 7.262-3.554.05m4.732-3.776-3.555.05m4.481-3.589-3.555.05" stroke="#fff" stroke-width="2" stroke-miterlimit="10" stroke-linecap="round" stroke-linejoin="round"/><path opacity=".998" d="M30.238 27.555s9.723-.004 19.87-.004c10.148 0 19.57-.691 20.72.004.97.585.905 23.391 0 24.34-1.2 1.258-39.031.338-40.59 0-.736-.16-.203-5.577-.203-11.662 0-6.085.203-12.678.203-12.678Z" fill="#FCFCFC" stroke="#fff" stroke-width="2" stroke-miterlimit="10" stroke-linecap="round" stroke-linejoin="round"/></svg>

<svg width="101" height="100" fill="none" xmlns="http://www.w3.org/2000/svg"><path d="m23.494 54.555-.145-30.459c-.033-1.471 1.491-2.036 2.963-2.035L75.594 22c1.472.001 1.735 1.332 1.77 2.803l.318 29.949c.035 1.472-1.094 2.119-2.566 2.128l-48.897.322a2.716 2.716 0 0 1-2.725-2.647ZM63.233 71.338l20.44-.098-5.036-12.19c-.488-1.18-1.92-2.125-3.197-2.11l-49.801.354c-1.28.014-2.755.967-3.294 2.127L16.64 71.56l19.603.073" stroke="#fff" stroke-width="2" stroke-miterlimit="10" stroke-linecap="round" stroke-linejoin="round"/><path d="M16.645 71.638s-1.38 5.425 4.373 5.245c1.002-.031 6.732.231 13.154.192 0 0 6.866-.126 17.839-.177 10.972-.051 27.489 0 27.489 0s4.449-.088 4.21-5.485" stroke="#fff" stroke-width="2" stroke-miterlimit="10" stroke-linecap="round" stroke-linejoin="round"/><path d="m36.433 71.717 2.162 1.236c.788.45 2.162.806 3.069.796l17.27-.19c.908-.01 2.172-.529 2.825-1.159l1.05-1.016M42.617 67.873l13.768-.114M38.859 67.782l-3.555.05M64.943 67.563l-3.555.05M56.286 64.12l-3.555.05M56.382 60.45l-3.555.05M48.093 60.393l-3.555.05M47.936 64.132l-3.555.05M39.647 64.076l-3.555.05M39.888 60.29l-3.554.05M65.236 63.946l-3.554.051M64.655 60.614l-3.555.05M74.461 67.49l-3.555.051M73.599 63.738l-3.555.051M72.357 60.222l-3.555.05M30.083 67.534l-3.554.05M31.261 63.808l-3.555.05M32.187 60.269l-3.555.05" stroke="#fff" stroke-width="2" stroke-miterlimit="10" stroke-linecap="round" stroke-linejoin="round"/><path opacity=".998" d="M30.238 27.555s9.723-.004 19.87-.004c10.148 0 19.57-.691 20.72.004.97.585.905 23.391 0 24.34-1.2 1.258-39.031.338-40.59 0-.736-.16-.203-5.577-.203-11.662 0-6.085.203-12.678.203-12.678Z" fill="#FCFCFC" stroke="#fff" stroke-width="2" stroke-miterlimit="10" stroke-linecap="round" stroke-linejoin="round"/></svg>
